X:96
T:Ode to Joy
C:Ludwig van Beethoven (Schiller)
F:http://trillian.mit.edu/~jc/music/abc/contrib/song/OdeToJoy.abc
S:Jim Coon to CoMandoList TOW
M:4/4
L:1/4
K:G
| B B c d | d c B A | G G A B | B>A A2 |
w: Freu-de, sch\"o-ner G\"ot-ter-funk-en, Toch-ter aus E-ly-si-um,
| B B c d | d c B A | G G A B | A>G G2 |
w: Wir be-tre-ten, fe\"ur-*trunk-en, himm-li-sche, dein Hei-lig-tum!
| A A B G | A B/c/ B G | A B/c/ B A | G A D2 |
